src/assets/icons/flag.svg

<svg fill="none" viewBox="0 0 24 24"><path stroke="currentColor" stroke-linecap="round" stroke-linejoin="round" stroke-width="1.5" d="M6.75 14.85s.75-.7 3-.7 3.75 1.4 6 1.4 3-.7 3-.7v-8.4s-.75.7-3 .7-3.75-1.4-6-1.4-3 .7-3 .7v13.3"/></svg>

<svg width="24" height="24" viewBox="0 0 24 24" fill="none" xmlns="http://www.w3.org/2000/svg">
  <path d="M6.75 14.85C6.75 14.85 7.5 14.15 9.75 14.15C12 14.15 13.5 15.55 15.75 15.55C18 15.55 18.75 14.85 18.75 14.85V6.45C18.75 6.45 18 7.15 15.75 7.15C13.5 7.15 12 5.75 9.75 5.75C7.5 5.75 6.75 6.45 6.75 6.45L6.75 19.75" stroke="#314158" stroke-width="1.5" stroke-linecap="round" stroke-linejoin="round"/>
</svg>
